hosted/assets/icon/widgets/dark-mode/board.svg

<svg width="50" height="50" viewBox="0 0 50 50" fill="none" xmlns="http://www.w3.org/2000/svg">
<rect x="5" y="6" width="40" height="11" fill="#C89000"/>
<path d="M24.9846 3.98633C24.9361 3.98738 24.8878 3.99194 24.84 4H5.0002C4.73499 4.00002 4.48066 4.10539 4.29313 4.29292C4.1056 4.48045 4.00023 4.73479 4.0002 5V17.832C3.98235 17.94 3.98235 18.0502 4.0002 18.1582V31.832C3.98235 31.94 3.98235 32.0502 4.0002 32.1582V45C4.00023 45.2652 4.1056 45.5195 4.29313 45.7071C4.48066 45.8946 4.73499 46 5.0002 46H24.8322C24.9402 46.0178 25.0504 46.0178 25.1584 46H45.0002C45.2654 46 45.5197 45.8946 45.7073 45.7071C45.8948 45.5195 46.0002 45.2652 46.0002 45V32.168C46.0181 32.06 46.0181 31.9498 46.0002 31.8418V18.168C46.0181 18.06 46.0181 17.9498 46.0002 17.8418V5C46.0002 4.73479 45.8948 4.48045 45.7073 4.29292C45.5197 4.10539 45.2654 4.00002 45.0002 4H25.1545C25.0984 3.99061 25.0415 3.98604 24.9846 3.98633ZM6.0002 6H24.0002V17H6.0002V6ZM26.0002 6H44.0002V17H26.0002V6ZM6.0002 19H24.0002V31H6.0002V19ZM26.0002 19H44.0002V31H26.0002V19ZM6.0002 33H24.0002V44H6.0002V33ZM26.0002 33H44.0002V44H26.0002V33Z" fill="white"/>
</svg>

<svg width="50" height="50" fill="none" xmlns="http://www.w3.org/2000/svg"><path fill="#C89000" d="M5 6h40v11H5z"/><path d="M24.985 3.986A1 1 0 0024.84 4H5a1 1 0 00-1 1v12.832a1 1 0 000 .326v13.674a1 1 0 000 .326V45a1 1 0 001 1h19.832a.99.99 0 00.326 0H45a1 1 0 001-1V32.168a.997.997 0 000-.326V18.168a.997.997 0 000-.326V5a1 1 0 00-1-1H25.154a.999.999 0 00-.17-.014zM6 6h18v11H6V6zm20 0h18v11H26V6zM6 19h18v12H6V19zm20 0h18v12H26V19zM6 33h18v11H6V33zm20 0h18v11H26V33z" fill="#fff"/></svg>
